dist/images/ico/ico_del_02.svg

<svg width="32" height="32" viewBox="0 0 32 32" fill="none" xmlns="http://www.w3.org/2000/svg">
<path d="M21.7338 10.2753C21.3788 9.92036 20.8055 9.92036 20.4505 10.2753L16 14.7167L11.5495 10.2662C11.1945 9.91126 10.6212 9.91126 10.2662 10.2662C9.91126 10.6212 9.91126 11.1945 10.2662 11.5495L14.7167 16L10.2662 20.4505C9.91126 20.8055 9.91126 21.3788 10.2662 21.7338C10.6212 22.0887 11.1945 22.0887 11.5495 21.7338L16 17.2833L20.4505 21.7338C20.8055 22.0887 21.3788 22.0887 21.7338 21.7338C22.0887 21.3788 22.0887 20.8055 21.7338 20.4505L17.2833 16L21.7338 11.5495C22.0796 11.2036 22.0796 10.6212 21.7338 10.2753Z" fill="white" fill-opacity="0.8"/>
</svg>

<svg width="32" height="32" fill="none" xmlns="http://www.w3.org/2000/svg"><path d="M21.734 10.275a.906.906 0 00-1.284 0L16 14.717l-4.45-4.45a.906.906 0 10-1.284 1.283l4.45 4.45-4.45 4.45a.906.906 0 101.284 1.284l4.45-4.45 4.45 4.45a.906.906 0 101.284-1.284L17.284 16l4.45-4.45a.912.912 0 000-1.275z" fill="#fff" fill-opacity=".8"/></svg>
